src/actions/24/labplot-TeX-logo.svg

<svg xmlns="http://www.w3.org/2000/svg" viewBox="0 0 24 24">
  <defs id="defs3051">
    <style type="text/css" id="current-color-scheme">
      .ColorScheme-Text {
        color:#363636;
      }
      </style>
  </defs><g transform="translate(1,1)">
 <path 
     style="fill:currentColor;fill-opacity:1;stroke:none" 
     d="M 3 6.5 L 3 7.5 L 5.5 7.5 L 5.5 13.5 L 6.5 13.5 L 6.5 7.5 L 9 7.5 L 9 6.5 L 3 6.5 z M 14.394531 6.6953125 L 13.603516 7.3046875 L 15.869141 10.25 L 13.603516 13.195312 L 14.394531 13.804688 L 16.5 11.068359 L 18.603516 13.804688 L 19.394531 13.195312 L 17.128906 10.25 L 19.394531 7.3046875 L 18.603516 6.6953125 L 16.5 9.4316406 L 14.394531 6.6953125 z M 8 8.5 L 8 9.5 L 8 11 L 8 12 L 8 14.5 L 8 15.5 L 13 15.5 L 13 14.5 L 9 14.5 L 9 12.5 L 13 12.5 L 13 11.5 L 9 11.5 L 9 9.5 L 13 9.5 L 13 8.5 L 8 8.5 z "
     class="ColorScheme-Text"
     />
</g></svg>

<svg xmlns="http://www.w3.org/2000/svg" viewBox="0 0 24 24">
    <path d="M3 6.5v1h2.5v6h1v-6H9v-1H3zm11.395.195-.791.61 2.265 2.945-2.265 2.945.79.61 2.106-2.737 2.104 2.737.79-.61-2.265-2.945 2.266-2.945-.791-.61L16.5 9.432l-2.105-2.737zM8 8.5v7h5v-1H9v-2h4v-1H9v-2h4v-1H8z" style="fill:currentColor;fill-opacity:1;stroke:none;color:#050505;opacity:.7" transform="translate(1 1)"/>
</svg>
